build/img/regular/icon/icon_discord.svg

<svg width="32" height="25" viewBox="0 0 32 25" fill="none" xmlns="http://www.w3.org/2000/svg">
<g filter="url(#filter0_d_128_579)">
<path d="M25.4714 2.50275C23.798 1.78404 22.0043 1.25283 20.1285 0.950766C20.1118 0.947712 20.0945 0.94968 20.0791 0.956398C20.0636 0.963116 20.0507 0.974252 20.0421 0.988263C19.8125 1.37261 19.5565 1.87362 19.3772 2.26943C17.3878 1.98636 15.3653 1.98636 13.3759 2.26943C13.1761 1.83077 12.9509 1.40305 12.7011 0.988263C12.6926 0.97408 12.6798 0.962692 12.6644 0.95562C12.649 0.948548 12.6316 0.946128 12.6147 0.948682C10.7401 1.25075 8.94637 1.78196 7.27188 2.50171C7.25748 2.50746 7.24527 2.51727 7.23689 2.52983C3.83323 7.29514 2.90029 11.9428 3.35856 16.532C3.35983 16.5433 3.3635 16.5541 3.36933 16.564C3.37516 16.5738 3.38303 16.5825 3.39246 16.5893C5.37909 17.9668 7.5949 19.0161 9.94712 19.6933C9.96352 19.6981 9.98106 19.6981 9.99744 19.6932C10.0138 19.6884 10.0283 19.679 10.039 19.6662C10.5452 19.0215 10.9937 18.3376 11.3799 17.6215C11.3853 17.6118 11.3883 17.601 11.3889 17.59C11.3896 17.5789 11.3877 17.5679 11.3834 17.5576C11.3792 17.5474 11.3726 17.5381 11.3643 17.5304C11.356 17.5228 11.346 17.5169 11.335 17.5132C10.6285 17.2598 9.94393 16.954 9.28761 16.5987C9.27581 16.5923 9.26588 16.5832 9.25869 16.5722C9.2515 16.5612 9.24728 16.5487 9.24641 16.5358C9.24554 16.5229 9.24805 16.51 9.25372 16.4983C9.25938 16.4865 9.26802 16.4763 9.27886 16.4685C9.41667 16.3716 9.55447 16.2706 9.68572 16.1696C9.69753 16.1605 9.71176 16.1547 9.72683 16.1528C9.74189 16.151 9.75719 16.1532 9.77103 16.1591C14.0661 17.9965 18.7176 17.9965 22.9624 16.1591C22.9762 16.1528 22.9917 16.1504 23.007 16.152C23.0223 16.1537 23.0367 16.1594 23.0488 16.1685C23.18 16.2706 23.3167 16.3716 23.4556 16.4685C23.4666 16.4761 23.4754 16.4862 23.4812 16.4979C23.487 16.5095 23.4898 16.5224 23.4891 16.5353C23.4885 16.5482 23.4845 16.5607 23.4775 16.5718C23.4705 16.5829 23.4607 16.5921 23.4491 16.5987C22.795 16.957 22.1147 17.2601 21.4005 17.5122C21.3896 17.516 21.3796 17.5219 21.3712 17.5297C21.3629 17.5375 21.3564 17.5468 21.3521 17.5572C21.3479 17.5675 21.346 17.5786 21.3466 17.5897C21.3472 17.6008 21.3503 17.6117 21.3557 17.6215C21.7494 18.3371 22.2 19.0183 22.6955 19.6652C22.7058 19.6784 22.7202 19.6884 22.7366 19.6936C22.753 19.6988 22.7708 19.6991 22.7874 19.6943C25.1436 19.019 27.3631 17.9692 29.3519 16.5893C29.3616 16.5829 29.3697 16.5745 29.3758 16.5648C29.3818 16.5551 29.3856 16.5443 29.3869 16.5331C29.9337 11.2272 28.4703 6.61706 25.5053 2.53191C25.498 2.51864 25.486 2.50829 25.4714 2.50275ZM12.0219 13.7374C10.7291 13.7374 9.66275 12.624 9.66275 11.2584C9.66275 9.89184 10.7083 8.77942 12.0219 8.77942C13.3453 8.77942 14.4018 9.90122 14.3811 11.2584C14.3811 12.625 13.3355 13.7374 12.0219 13.7374ZM20.7443 13.7374C19.4504 13.7374 18.3852 12.624 18.3852 11.2584C18.3852 9.89184 19.4297 8.77942 20.7443 8.77942C22.0677 8.77942 23.1242 9.90122 23.1035 11.2584C23.1035 12.625 22.0688 13.7374 20.7443 13.7374Z" fill="white"/>
</g>
<defs>
<filter id="filter0_d_128_579" x="0.924174" y="0.947693" width="30.9012" height="23.4012" filterUnits="userSpaceOnUse" color-interpolation-filters="sRGB">
<feFlood flood-opacity="0" result="BackgroundImageFix"/>
<feColorMatrix in="SourceAlpha" type="matrix" values="0 0 0 0 0 0 0 0 0 0 0 0 0 0 0 0 0 0 127 0" result="hardAlpha"/>
<feOffset dy="2.32558"/>
<feGaussianBlur stdDeviation="1.16279"/>
<feComposite in2="hardAlpha" operator="out"/>
<feColorMatrix type="matrix" values="0 0 0 0 0 0 0 0 0 0 0 0 0 0 0 0 0 0 0.25 0"/>
<feBlend mode="normal" in2="BackgroundImageFix" result="effect1_dropShadow_128_579"/>
<feBlend mode="normal" in="SourceGraphic" in2="effect1_dropShadow_128_579" result="shape"/>
</filter>
</defs>
</svg>

<svg width="32" height="25" fill="none" xmlns="http://www.w3.org/2000/svg"><g filter="url(#a)"><path d="M25.471 2.503A22.683 22.683 0 0 0 20.128.95a.085.085 0 0 0-.049.005.081.081 0 0 0-.037.032c-.23.385-.486.886-.665 1.281a21.312 21.312 0 0 0-6.001 0c-.2-.438-.425-.866-.675-1.28a.083.083 0 0 0-.037-.033.088.088 0 0 0-.05-.007 22.667 22.667 0 0 0-5.342 1.553.076.076 0 0 0-.035.028C3.833 7.295 2.9 11.943 3.359 16.532a.08.08 0 0 0 .033.057 22.358 22.358 0 0 0 6.555 3.104.089.089 0 0 0 .092-.027c.506-.645.955-1.328 1.34-2.044a.073.073 0 0 0 .004-.064.078.078 0 0 0-.048-.045 14.787 14.787 0 0 1-2.047-.914.08.08 0 0 1-.03-.027.076.076 0 0 1 .02-.104c.139-.096.276-.197.408-.298a.085.085 0 0 1 .085-.01c4.295 1.837 8.947 1.837 13.191 0a.086.086 0 0 1 .087.009c.131.102.268.203.407.3a.078.078 0 0 1 .033.066.075.075 0 0 1-.012.037.08.08 0 0 1-.028.027 13.83 13.83 0 0 1-2.049.913.08.08 0 0 0-.048.045.075.075 0 0 0 .004.064c.393.716.844 1.397 1.34 2.044a.09.09 0 0 0 .04.029.088.088 0 0 0 .051 0 22.286 22.286 0 0 0 6.565-3.105.077.077 0 0 0 .035-.056c.547-5.306-.917-9.916-3.882-14.001a.065.065 0 0 0-.034-.03Zm-13.45 11.234c-1.292 0-2.358-1.113-2.358-2.479s1.045-2.479 2.359-2.479c1.323 0 2.38 1.122 2.36 2.48 0 1.366-1.046 2.478-2.36 2.478Zm8.723 0c-1.294 0-2.359-1.113-2.359-2.479s1.045-2.479 2.36-2.479c1.323 0 2.38 1.122 2.358 2.48 0 1.366-1.034 2.478-2.359 2.478Z" fill="#fff"/></g><defs><filter id="a" x=".924" y=".948" width="30.901" height="23.401" filterUnits="userSpaceOnUse" color-interpolation-filters="sRGB"><feFlood flood-opacity="0" result="BackgroundImageFix"/><feColorMatrix in="SourceAlpha" values="0 0 0 0 0 0 0 0 0 0 0 0 0 0 0 0 0 0 127 0" result="hardAlpha"/><feOffset dy="2.326"/><feGaussianBlur stdDeviation="1.163"/><feComposite in2="hardAlpha" operator="out"/><feColorMatrix values="0 0 0 0 0 0 0 0 0 0 0 0 0 0 0 0 0 0 0.25 0"/><feBlend in2="BackgroundImageFix" result="effect1_dropShadow_128_579"/><feBlend in="SourceGraphic" in2="effect1_dropShadow_128_579" result="shape"/></filter></defs></svg>
